X: 44
T:Shepton Reel
% Nottingham Music Database
S:Kevin Briggs, via EF
M:4/4
L:1/4
K:G
P:A
D|"G"G/2A/2B/2c/2 dd/2B/2|"C"ce "D7"d3/2B/2|"G"G/2A/2B/2c/2 dd/2B/2|\
"Am""C"ce "D7""D"A2|
"G""Em"G/2A/2B/2c/2 dd/2B/2|"C"ce "D"d3/2B/2|"Em"G/2A/2B/2c/2 "D7"dd/2c/2|\
"G"BG G:|
P:B
d|"G"gg g/2a/2g/2f/2|"C"ec c/2d/2c/2B/2|"A7"Aa a/2b/2a/2g/2|"D7"fd de/2f/2|
"G"g/2a/2g/2f/2 "C"ea/2g/2|"A7/c+"f/2g/2f/2e/2 "D7"de/2f/2|\
"G"gB "C"c/2e/2d/2c/2|"G"BG G:|


